X:3599
L:1/8
M:9/8
K:A
"^With Spirit" A | (.c.c.c) (dB).A (GE) (A/B/) | .c.c.c (dB).G A2 z | .c.c.c (dB).A (GE).C | 
 (.D.E.F) (.G.E.G) [EA]2 :: (.A | .G.E.E .F.E.D .C.B,.A,) | (CD).E (EF).G A2 (.A | 
 .G.E.E .F.E.D) (.C.B,.A,) | (.c.c.c) (dB).G [EA]2 :|

